X: 6
T: The Maids Of Mitchelstown
R: reel
M: 4/4
L: 1/8
K: Dmix
|D2 AG EG G2| A2 GA cAGE|D2 AG EG G2|Ac GE EDDC|
DAAG EG G2| A2 GA cAGE|DAAG EG G2|Ac GE EDDG||
|(3EFG AB c2 AG|Adde =f2 ed|cAGE =F3G|(3ABc GE EDDG|
|(3EFG AB c2 AG|Adde =f2 ed|cAGE =F3G|(3ABc Bd cAGE||

